packages/foundations/assets/icons/functional/images/devices/camera.svg

<svg xmlns="http://www.w3.org/2000/svg" width="32" height="32" fill="none"><path fill="#1A1C1F" fill-rule="evenodd" d="M12.133 6.106c-.795.216-1.154.479-2.506 1.837l-1.066 1.07H6.609c-1.773 0-1.99.01-2.366.106-1.008.258-1.797 1.021-2.125 2.054L2 11.547v11.946l.148.418c.351.994 1.067 1.674 2.095 1.991.303.094.81.098 11.757.098s11.454-.004 11.757-.098a3.2 3.2 0 0 0 1.274-.721c.401-.38.634-.74.821-1.27l.148-.418V11.6l-.118-.373c-.334-1.055-1.286-1.947-2.298-2.155-.174-.036-1.026-.059-2.209-.059h-1.927l-1.23-1.215c-1.323-1.305-1.597-1.507-2.301-1.69-.437-.114-7.364-.116-7.784-.002m7.36 1.954c.176.048.458.302 1.6 1.436.763.757 1.455 1.403 1.537 1.434.097.036.886.057 2.224.057 1.295 0 2.176.021 2.345.058.325.07.568.261.701.553.093.205.098.5.099 5.897L28 23.177l-.12.235a1.4 1.4 0 0 1-.325.398l-.205.163-11.155.016c-6.135.008-11.258.001-11.384-.017-.279-.04-.574-.282-.712-.585-.092-.202-.097-.515-.098-5.882-.001-6.145-.013-5.873.282-6.189.284-.305.245-.3 2.784-.333 1.29-.016 2.356-.034 2.368-.04s.661-.644 1.443-1.419c1.054-1.045 1.468-1.422 1.605-1.462.268-.077 6.733-.079 7.01-.002m-4.196 3.994c-1.169.186-2.161.708-2.95 1.552a4.9 4.9 0 0 0-1.201 2.209c-.505 1.974.327 4.15 2.027 5.305 2.017 1.369 4.669 1.115 6.374-.609a4.964 4.964 0 0 0 .106-6.905c-.655-.701-1.548-1.233-2.426-1.445-.519-.125-1.481-.179-1.93-.107m-8.71 1.048c-.658.346-.777 1.154-.241 1.638.26.234.397.259 1.289.238.665-.017.735-.028.917-.151.224-.152.462-.578.46-.824-.002-.351-.323-.808-.655-.933-.246-.093-1.579-.069-1.77.032m10.179 1.009c.503.13.929.381 1.346.794.586.58.876 1.276.874 2.098-.003 1.14-.655 2.188-1.661 2.668-.935.447-1.715.447-2.65 0-1.207-.576-1.881-1.967-1.603-3.308.211-1.018 1.08-1.943 2.101-2.237.413-.118 1.164-.125 1.593-.015"/></svg>

<svg width="32" height="32" viewBox="0 0 32 32" fill="none" xmlns="http://www.w3.org/2000/svg"><path d="M12.133 6.106 C 11.338 6.322,10.979 6.585,9.627 7.943 L 8.561 9.013 6.609 9.013 C 4.836 9.013,4.619 9.023,4.243 9.119 C 3.235 9.377,2.446 10.140,2.118 11.173 L 2.000 11.547 2.000 17.520 L 2.000 23.493 2.148 23.911 C 2.499 24.905,3.215 25.585,4.243 25.902 C 4.546 25.996,5.053 26.000,16.000 26.000 C 26.947 26.000,27.454 25.996,27.757 25.902 C 28.263 25.746,28.689 25.505,29.031 25.181 C 29.432 24.801,29.665 24.441,29.852 23.911 L 30.000 23.493 30.000 17.547 L 30.000 11.600 29.882 11.227 C 29.548 10.172,28.596 9.280,27.584 9.072 C 27.410 9.036,26.558 9.013,25.375 9.013 L 23.448 9.013 22.218 7.798 C 20.895 6.493,20.621 6.291,19.917 6.108 C 19.480 5.994,12.553 5.992,12.133 6.106 M19.493 8.060 C 19.669 8.108,19.951 8.362,21.093 9.496 C 21.856 10.253,22.548 10.899,22.630 10.930 C 22.727 10.966,23.516 10.987,24.854 10.987 C 26.149 10.987,27.030 11.008,27.199 11.045 C 27.524 11.115,27.767 11.306,27.900 11.598 C 27.993 11.803,27.998 12.098,27.999 17.495 L 28.000 23.177 27.880 23.412 C 27.814 23.541,27.668 23.721,27.555 23.810 L 27.350 23.973 16.195 23.989 C 10.060 23.997,4.937 23.990,4.811 23.972 C 4.532 23.932,4.237 23.690,4.099 23.387 C 4.007 23.185,4.002 22.872,4.001 17.505 C 4.000 11.360,3.988 11.632,4.283 11.316 C 4.567 11.011,4.528 11.016,7.067 10.983 C 8.357 10.967,9.423 10.949,9.435 10.943 C 9.447 10.938,10.096 10.299,10.878 9.524 C 11.932 8.479,12.346 8.102,12.483 8.062 C 12.751 7.985,19.216 7.983,19.493 8.060 M15.297 12.054 C 14.128 12.240,13.136 12.762,12.347 13.606 C 11.755 14.240,11.366 14.954,11.146 15.815 C 10.641 17.789,11.473 19.965,13.173 21.120 C 15.190 22.489,17.842 22.235,19.547 20.511 C 21.440 18.596,21.487 15.568,19.653 13.606 C 18.998 12.905,18.105 12.373,17.227 12.161 C 16.708 12.036,15.746 11.982,15.297 12.054 M6.587 13.102 C 5.929 13.448,5.810 14.256,6.346 14.740 C 6.606 14.974,6.743 14.999,7.635 14.978 C 8.300 14.961,8.370 14.950,8.552 14.827 C 8.776 14.675,9.014 14.249,9.012 14.003 C 9.010 13.652,8.689 13.195,8.357 13.070 C 8.111 12.977,6.778 13.001,6.587 13.102 M16.766 14.111 C 17.269 14.241,17.695 14.492,18.112 14.905 C 18.698 15.485,18.988 16.181,18.986 17.003 C 18.983 18.143,18.331 19.191,17.325 19.671 C 16.390 20.118,15.610 20.118,14.675 19.671 C 13.468 19.095,12.794 17.704,13.072 16.363 C 13.283 15.345,14.152 14.420,15.173 14.126 C 15.586 14.008,16.337 14.001,16.766 14.111 " fill="#1A1C1F" stroke="none" fill-rule="evenodd"></path></svg>
